priv/static/images/frameworks/django.svg

<svg xmlns="http://www.w3.org/2000/svg" width="128" height="128" fill="none"><path fill="#076A2F" d="M59.448 0h20.93v96.88c-10.737 2.04-18.62 2.855-27.181 2.855-25.551-.001-38.87-11.551-38.87-33.705 0-21.338 14.135-35.2 36.015-35.2 3.398 0 5.98.272 9.106 1.087zm0 48.765c-2.446-.815-4.485-1.086-7.067-1.086-10.6 0-16.717 6.523-16.717 17.939 0 11.145 5.845 17.26 16.582 17.26 2.309 0 4.212-.136 7.202-.542z"/><path fill="#076A2F" d="M113.672 32.321v48.52c0 16.716-1.224 24.734-4.893 31.665-3.398 6.661-7.883 10.873-17.124 15.494l-19.435-9.241c9.242-4.35 13.726-8.153 16.58-14 2.99-5.979 3.943-12.91 3.943-31.122V32.321zM92.742.111h20.93v21.474h-20.93z"/></svg>

<svg
  width="128"
  height="128"
  viewBox="0 0 128 128"
  fill="none"
  xmlns="http://www.w3.org/2000/svg"
>
  <path
    d="M59.448 0H80.378V96.88C69.641 98.92 61.758 99.735 53.197 99.735C27.646 99.734 14.327 88.184 14.327 66.03C14.327 44.692 28.462 30.83 50.342 30.83C53.74 30.83 56.322 31.102 59.448 31.917V0ZM59.448 48.765C57.002 47.95 54.963 47.679 52.381 47.679C41.781 47.679 35.664 54.202 35.664 65.618C35.664 76.763 41.509 82.878 52.246 82.878C54.555 82.878 56.458 82.742 59.448 82.336V48.765Z"
    fill="#076A2F"
  />
  <path
    d="M113.672 32.3211V80.8401C113.672 97.5571 112.448 105.575 108.779 112.506C105.381 119.167 100.896 123.379 91.655 128L72.22 118.759C81.462 114.409 85.946 110.606 88.8 104.759C91.79 98.7801 92.743 91.8491 92.743 73.6371V32.3211H113.672ZM92.742 0.111084H113.672V21.5851H92.742V0.111084Z"
    fill="#076A2F"
  />
</svg>
